X:1
T:Title
%%score ( 1 2 ) { 3 | 4 }
L:1/8
Q:1/4=103
M:4/4
K:Ab
V:1 treble nm="Grand Piano, Soprano"
V:2 treble 
V:3 bass nm="Choir Pad, Miramar, 77.77 D, John Lee"
V:4 bass 
V:1
 [Ec]3 [Fd] [Ec][DB][CA][DF] | [CE]8 | [EG]3 [EA] [GB][F=A][GB][G_c] | [Ac]8 | %4
w: Generated~by~NoteWorthy~Composer * * * * *||||
 [Ac]3 [Bd] [ce][Ac][EA][CE] | [DF]4 [FA]4 | [=DB]3 [DB] [Dc][DB][DA][DF] | E4- [DE]4 | %8
w: ||||
 [Ec]3 [Ec] [DB][DA][DG][DF] | [CE]8 | [DF]3 [EG] [EA][EA][FB][F_c] | [=Ec]8 | %12
w: ||||
 [Ac]3 [Bd] [ce][Ac][EA][CE] | [DF]4 [FA]4 | [EG]3 [EA] [GB][Bd][Ac][EB] | [EA]8 |] %16
w: ||||
V:2
 x8 | x8 | x8 | x8 | x8 | x8 | x8 | B,4 z4 | x8 | x8 | x8 | x8 | x8 | x8 | x8 | x8 |] %16
V:3
 A,3 A, A,E,F,G, | A,8 | B,3[K:treble] C DCD=D | E8 | E3[K:bass] G, A,ECA, | A,4 D4 | %6
 A,3 A, A,A,F,A, | G,8 | A,3 A, F,F,F,A, | A,8 | A,3 A, A,A,A,F, | G,8 | E3 G, A,[K:treble]ECA, | %13
 A,4 D4 | B,3 C DFED | C8 |] %16
V:4
 A,,3 A,, A,,A,,A,,A,, | A,,8 | E,3 E, E,E,E,E, | A,,8 | A,,3 A,, A,,A,,A,,A,, | D,4 D,4 | %6
 B,,3 B,, B,,B,,B,,B,, | E,8 | A,,3 A,, D,D,D,D, | A,,8 | D,3 D, C,C,D,D, | C,8 | %12
 A,,3 A,, A,,A,,A,,A,, | D,4 D,4 | E,3 E, E,E,E,E, | [A,,A,]8 |] %16

